svgs/materials/action/rounded_corner.svg

<svg xmlns="http://www.w3.org/2000/svg" enable-background="new 0 0 24 24" height="24" viewBox="0 0 24 24" width="24"><g><rect fill="none" height="24" width="24"/></g><g><g><g><path d="M19,19h2v2h-2V19z M19,17h2v-2h-2V17z M3,13h2v-2H3V13z M3,17h2v-2H3V17z M3,9h2V7H3V9z M3,5h2V3H3V5z M7,5h2V3H7V5z M15,21h2v-2h-2V21z M11,21h2v-2h-2V21z M15,21h2v-2h-2V21z M7,21h2v-2H7V21z M3,21h2v-2H3V21z M21,8c0-2.76-2.24-5-5-5h-5v2h5 c1.65,0,3,1.35,3,3v5h2V8z"/></g></g></g></svg>

<?xml version="1.0" encoding="UTF-8" standalone="no"?>
<svg
   enable-background="new 0 0 24 24"
   height="24"
   viewBox="0 0 24 24"
   width="24"
   version="1.1"
   id="svg14"
   sodipodi:docname="rounded_corner.svg"
   inkscape:version="1.2 (dc2aeda, 2022-05-15)"
   xmlns:inkscape="http://www.inkscape.org/namespaces/inkscape"
   xmlns:sodipodi="http://sodipodi.sourceforge.net/DTD/sodipodi-0.dtd"
   xmlns="http://www.w3.org/2000/svg"
   xmlns:svg="http://www.w3.org/2000/svg">
  <defs
     id="defs18" />
  <sodipodi:namedview
     id="namedview16"
     pagecolor="#ffffff"
     bordercolor="#000000"
     borderopacity="0.25"
     inkscape:showpageshadow="2"
     inkscape:pageopacity="0.0"
     inkscape:pagecheckerboard="0"
     inkscape:deskcolor="#d1d1d1"
     showgrid="false"
     inkscape:zoom="9.8333333"
     inkscape:cx="11.949153"
     inkscape:cy="12"
     inkscape:window-width="1309"
     inkscape:window-height="456"
     inkscape:window-x="0"
     inkscape:window-y="25"
     inkscape:window-maximized="0"
     inkscape:current-layer="svg14" />
  <path
     id="rect2"
     style="fill:none"
     d="M 0,0 H 24 V 24 H 0 Z" />
  <path
     d="m 19,19 h 2 v 2 h -2 z m 0,-2 h 2 V 15 H 19 Z M 3,13 H 5 V 11 H 3 Z m 0,4 H 5 V 15 H 3 Z M 3,9 H 5 V 7 H 3 Z M 3,5 H 5 V 3 H 3 Z M 7,5 H 9 V 3 H 7 Z m 8,16 h 2 v -2 h -2 z m -4,0 h 2 v -2 h -2 z m 4,0 h 2 V 19 H 15 Z M 7,21 H 9 V 19 H 7 Z M 3,21 H 5 V 19 H 3 Z M 21,8 C 21,5.24 18.76,3 16,3 h -5 v 2 h 5 c 1.65,0 3,1.35 3,3 v 5 h 2 z"
     id="path6" />
</svg>
